svgs/sharp-regular/drumstick.svg

<svg xmlns="http://www.w3.org/2000/svg" viewBox="0 0 512 512"><!--! Font Awesome Pro 6.6.0 by @fontawesome - https://fontawesome.com License - https://fontawesome.com/license (Commercial License) Copyright 2024 Fonticons, Inc. --><path d="M233.5 352l-58.4 58.3C185.6 421.1 192 435.8 192 452c0 33.1-26.9 60-60 60s-60-26.9-60-60l0-12-12 0c-33.1 0-60-26.9-60-60s26.9-60 60-60c16.2 0 30.9 6.4 41.6 16.8L160 278.5l0-22.5 0-24 0-56C160 78.8 238.8 0 336 0s176 78.8 176 176s-78.8 176-176 176l-56 0-24 0-22.5 0zM256 304l80 0c70.7 0 128-57.3 128-128s-57.3-128-128-128s-128 57.3-128 128l0 80 0 14.1L241.9 304l14.1 0z"/></svg>

<svg xmlns="http://www.w3.org/2000/svg" viewBox="0 0 512 512"><!--! Font Awesome Pro 6.4.2 by @fontawesome - https://fontawesome.com License - https://fontawesome.com/license (Commercial License) Copyright 2023 Fonticons, Inc. --><path d="M233.5 352l-58.4 58.3C185.6 421.1 192 435.8 192 452c0 33.1-26.9 60-60 60s-60-26.9-60-60V440H60c-33.1 0-60-26.9-60-60s26.9-60 60-60c16.2 0 30.9 6.4 41.6 16.8L160 278.5V256 232 176C160 78.8 238.8 0 336 0s176 78.8 176 176s-78.8 176-176 176H280 256 233.5zM256 304h80c70.7 0 128-57.3 128-128s-57.3-128-128-128s-128 57.3-128 128v80 14.1L241.9 304H256z"/></svg>
